X: 23118
T: Laurel Tree, The
R: reel
M: 4/4
K: Adorian
|:eA~A2 e2dc|BAGA Bd~d2|eA~A2 e2dc|BAGB A2Bd|
eA~A2 e2dc|BAGA Bd~d2|e2ef gbab|gedB A2Bd:|
eaag e2dc|BAGA Bd~d2|eaag e2dc|BAGB A2Bd|
eaag e2dc|BAGA Bd~d2|e2ef gbab|gedB A2Bd|
eaag e2dc|BAGA Bd~d2|eaag a2ga|bagb a2ag|
eaag e2dc|BAGA Bd~d2|e2ef gbab|gedB A2Bd||

